svg/u1f51e.svg

<svg viewBox="0 0 128 128" xmlns="http://www.w3.org/2000/svg">
  <g>
    <path d="M64,4C30.86,4,4,30.86,4,64s26.86,60,60,60s60-26.86,60-60S97.14,4,64,4z M114,64 c0.04,11.53-3.96,22.71-11.3,31.6L32.4,25.3C41.29,17.96,52.47,13.96,64,14C91.61,14,114,36.39,114,64z M14,64 c-0.04-11.53,3.96-22.71,11.3-31.6l70.3,70.3c-8.89,7.34-20.07,11.34-31.6,11.3C36.39,114,14,91.61,14,64z" fill="#CC3333"/>
    <circle cx="60.1" cy="63.1" r="56.1" fill="#F44336"/>
    <path d="M95.6,102.7c-8.89,7.34-20.07,11.34-31.6,11.3c-27.61,0-50-22.39-50-50 c-0.04-11.53,3.96-22.71,11.3-31.6l7.1-7.1C41.29,17.96,52.47,13.96,64,14c27.61,0,50,22.39,50,50c0.04,11.53-3.96,22.71-11.3,31.6 " fill="#FFFFFF"/>
    <path d="M95.6,102.7c-8.89,7.34-20.07,11.34-31.6,11.3c-27.61,0-50-22.39-50-50 c-0.04-11.53,3.96-22.71,11.3-31.6l7.1-7.1C41.29,17.96,52.47,13.96,64,14c27.61,0,50,22.39,50,50c0.04,11.53-3.96,22.71-11.3,31.6 " fill="#231F20"/>
    <path d="M96.4,103.2c-20.49,16.74-50.66,13.7-67.4-6.79C14.59,78.78,14.59,53.44,29,35.8l6.8-6.8 c8.53-7.03,19.25-10.85,30.3-10.8c26.45,0,47.9,21.44,47.9,47.9c0,11.04-3.82,21.75-10.8,30.3" fill="#414042"/>
    <path d="M93,58.3c0.04,2.74-0.77,5.43-2.3,7.7c-1.55,2.29-3.69,4.13-6.2,5.3c2.88,1.2,5.37,3.18,7.2,5.7 c1.79,2.47,2.74,5.45,2.7,8.5c0.19,4.56-1.68,8.97-5.1,12c-3.4,3-7.9,4.5-13.4,4.5s-10.1-1.5-13.4-4.5c-3.42-3.03-5.29-7.44-5.1-12 c-0.01-3.03,0.89-5.99,2.6-8.5c1.79-2.55,4.25-4.55,7.1-5.8c-2.48-1.18-4.59-3.01-6.1-5.3c-1.49-2.29-2.26-4.97-2.2-7.7 c0-4.9,1.6-8.8,4.7-11.7c3.1-2.9,7.3-4.3,12.4-4.3s9.2,1.4,12.4,4.3C91.46,49.59,93.17,53.88,93,58.3z M86.9,85.4 c0.13-2.98-1-5.88-3.1-8c-2.18-2.07-5.1-3.18-8.1-3.1c-5.69-0.39-10.61,3.91-11,9.59c-0.03,0.47-0.03,0.94,0,1.41 c-0.14,2.89,0.91,5.71,2.9,7.8c1.9,1.9,4.7,2.8,8.2,2.8S82,95,83.9,93C85.9,91.3,86.9,88.7,86.9,85.4z M75.8,48.4 c-2.61-0.13-5.15,0.85-7,2.7c-1.87,1.96-2.85,4.6-2.7,7.3c-0.11,2.67,0.87,5.26,2.7,7.2c1.89,1.85,4.46,2.83,7.1,2.7 c2.64,0.13,5.21-0.85,7.1-2.7c1.85-1.93,2.83-4.53,2.7-7.2c0.14-2.69-0.88-5.31-2.8-7.2C80.99,49.37,78.44,48.36,75.8,48.4z" fill="#FAFAFA"/>
    <path d="M49.1,43l-14.3,5.4c-0.68,0.23-1.13,0.88-1.1,1.6v3.2c0,0.94,0.77,1.71,1.71,1.71 c0.2,0,0.4-0.04,0.59-0.11l4.9-1.8c0.89-0.33,1.87,0.13,2.19,1.01c0.07,0.19,0.1,0.39,0.11,0.59v45.1c0.03,0.93,0.77,1.67,1.7,1.7 H49c0.93-0.03,1.67-0.77,1.7-1.7V44.1c0-0.67-0.55-1.22-1.23-1.21c-0.06,0-0.12,0-0.17,0.01L49.1,43z" fill="#FAFAFA"/>
    <path d="M84.6,34.7h-1.1c-0.38-0.01-0.69,0.28-0.7,0.66c0,0.01,0,0.03,0,0.04v3 c0.01,0.38-0.28,0.69-0.66,0.7c-0.01,0-0.03,0-0.04,0h-0.5c-0.38,0.01-0.69-0.28-0.7-0.66c0-0.01,0-0.03,0-0.04V28.3 c-0.01-0.38,0.28-0.69,0.66-0.7c0.01,0,0.03,0,0.04,0h3.3c1.11-0.07,2.2,0.25,3.1,0.9c0.74,0.66,1.14,1.61,1.1,2.6 c0.02,0.71-0.19,1.41-0.6,2c-0.26,0.38-0.6,0.68-1,0.9c-0.3,0.24-0.42,0.64-0.3,1l2.3,4.2v0.1h-1.7c-0.28-0.03-0.53-0.17-0.7-0.4 l-1.9-3.7C85.1,34.8,84.9,34.7,84.6,34.7z M82.8,32.3c-0.01,0.38,0.28,0.69,0.66,0.7c0.01,0,0.03,0,0.04,0h1.3 c0.57,0.02,1.14-0.16,1.6-0.5c0.41-0.34,0.64-0.86,0.6-1.4c0.02-0.51-0.16-1.01-0.5-1.4c-0.46-0.34-1.03-0.52-1.6-0.5h-1.4 c-0.38-0.01-0.69,0.28-0.7,0.66c0,0.01,0,0.03,0,0.04L82.8,32.3z" fill="#FAFAFA"/>
    <path d="M77.3,34h-3.9c-0.21,0.01-0.39,0.19-0.4,0.4v2.7c0.01,0.21,0.19,0.39,0.4,0.4H78 c0.21,0.01,0.39,0.19,0.4,0.4v0.8c-0.01,0.21-0.19,0.39-0.4,0.4h-6.6c-0.21-0.01-0.39-0.19-0.4-0.4V28.1 c0.01-0.21,0.19-0.39,0.4-0.4H78c0.21,0.01,0.39,0.19,0.4,0.4v0.8c-0.01,0.21-0.19,0.39-0.4,0.4h-4.6c-0.21,0.01-0.39,0.19-0.4,0.4 V32c0.01,0.21,0.19,0.39,0.4,0.4h3.9c0.21,0.01,0.39,0.19,0.4,0.4v0.8c0.02,0.2-0.13,0.38-0.34,0.4C77.34,34,77.32,34,77.3,34z" fill="#FAFAFA"/>
    <path d="M60.5,38.7V28.1c0.01-0.21,0.19-0.39,0.4-0.4h2.9c0.95-0.03,1.88,0.22,2.7,0.7 c0.79,0.42,1.42,1.09,1.8,1.9c0.41,0.88,0.61,1.83,0.6,2.8v0.6c0.03,0.97-0.18,1.93-0.6,2.8c-0.41,0.79-1.03,1.45-1.8,1.9 c-0.83,0.44-1.76,0.68-2.7,0.7h-2.9C60.69,39.09,60.51,38.91,60.5,38.7z M62.5,29.7v7.4c0.01,0.21,0.19,0.39,0.4,0.4h0.9 c0.91,0.05,1.79-0.32,2.4-1c0.62-0.8,0.9-1.8,0.8-2.8v-0.6c0.05-1-0.23-1.98-0.8-2.8c-0.58-0.66-1.42-1.03-2.3-1h-1 C62.69,29.31,62.51,29.49,62.5,29.7z" fill="#FAFAFA"/>
    <path d="M46.5,27.7c0.21,0.01,0.39,0.19,0.4,0.4v7.2c0.05,1.1-0.39,2.16-1.2,2.9 c-0.86,0.74-1.96,1.14-3.1,1.1c-1.12,0.07-2.23-0.29-3.1-1c-0.78-0.75-1.19-1.82-1.1-2.9v-7.2c0.01-0.21,0.19-0.39,0.4-0.4H40 c0.21,0.01,0.39,0.19,0.4,0.4v7.2c-0.05,0.63,0.17,1.25,0.6,1.7c0.46,0.42,1.08,0.63,1.7,0.6c1.15,0.13,2.18-0.69,2.31-1.84 c0.02-0.19,0.02-0.37-0.01-0.56v-7.1c0.01-0.21,0.19-0.39,0.4-0.4C45.4,27.7,46.5,27.7,46.5,27.7z" fill="#FAFAFA"/>
    <path d="M57.5,39.1h-1.3c-0.1,0-0.3-0.1-0.3-0.2l-4.2-6.7c-0.2-0.3-0.8-0.2-0.8,0.2v6.2 c-0.01,0.21-0.19,0.39-0.4,0.4h-1.2c-0.21-0.01-0.39-0.19-0.4-0.4V28.1c0.01-0.21,0.19-0.39,0.4-0.4h1.3c0.1,0,0.3,0.1,0.3,0.2 l4.2,6.7c0.2,0.3,0.8,0.2,0.8-0.2v-6.3c0.01-0.21,0.19-0.39,0.4-0.4h1.1c0.21,0.01,0.39,0.19,0.4,0.4v10.5 c0.08,0.17,0.01,0.38-0.17,0.47C57.59,39.09,57.55,39.1,57.5,39.1z" fill="#FAFAFA"/>
    <polyline points="23.4,35.6 95,102.1 97,100.2 30.6,33.4 " opacity="0.8" fill="#231F20" enable-background="new "/>
    <path d="M103.9,96.8L25.3,18.9L18.2,26l78.6,77.9" fill="#F44336"/>
    <path d="M45,10.9c1.7-0.4,4.2-1.6,5.9-1.1c1.09,0.3,1.75,1.4,1.5,2.5c-0.37,0.81-1.12,1.37-2,1.5 c-3.9,0.97-7.68,2.35-11.3,4.1c-7.18,3.78-13.38,9.19-18.1,15.8c-1.9,2.7-3.4,5.5-5.8,7.8c-0.21,0.23-0.49,0.37-0.8,0.4 c-0.17,0.03-0.35-0.01-0.5-0.1c-1.2-0.5-1.4-1.1-1.2-2.3c0.18-1.01,0.52-1.99,1-2.9c1.01-1.76,2.11-3.46,3.3-5.1 c1.89-2.91,4.11-5.59,6.6-8C30.4,17.2,39.2,12.4,45,10.9z" fill="#FF8A80"/>
    <polygon points="32.4,25.3 30.4,27.3 101.5,98.4 103.3,96.2 " fill="#CC3333"/>
  </g>
</svg>

<svg viewBox="0 0 128 128" xmlns="http://www.w3.org/2000/svg">
  <defs/>
  <path d="M64,4 C30.86,4 4,30.86 4,64 C4,97.14 30.86,124 64,124 C97.14,124 124,97.14 124,64 C124,30.86 97.14,4 64,4 Z M114,64 C114.04,75.53 110.04,86.71 102.7,95.6 L32.4,25.3 C41.29,17.96 52.47,13.96 64,14 C91.61,14 114,36.39 114,64 Z M14,64 C13.96,52.47 17.96,41.29 25.3,32.4 L95.6,102.7 C86.71,110.04 75.53,114.04 64,114 C36.39,114 14,91.61 14,64 Z" fill="#CC3333"/>
  <path d="M116.2,63.1 A56.1 56.1 0 1 1 4,63.1 A56.1 56.1 0 1 1 116.2,63.1 Z" fill="#F44336"/>
  <path d="M95.6,102.7 C86.71,110.04 75.53,114.04 64,114 C36.39,114 14,91.61 14,64 C13.96,52.47 17.96,41.29 25.3,32.4 L32.4,25.3 C41.29,17.96 52.47,13.96 64,14 C91.61,14 114,36.39 114,64 C114.04,75.53 110.04,86.71 102.7,95.6" fill="#FFFFFF"/>
  <path d="M95.6,102.7 C86.71,110.04 75.53,114.04 64,114 C36.39,114 14,91.61 14,64 C13.96,52.47 17.96,41.29 25.3,32.4 L32.4,25.3 C41.29,17.96 52.47,13.96 64,14 C91.61,14 114,36.39 114,64 C114.04,75.53 110.04,86.71 102.7,95.6" fill="#231F20"/>
  <path d="M96.4,103.2 C75.91,119.94 45.74,116.9 29,96.41 C14.59,78.78 14.59,53.44 29,35.8 L35.8,29 C44.33,21.97 55.05,18.15 66.1,18.2 C92.55,18.2 114,39.64 114,66.1 C114,77.14 110.18,87.85 103.2,96.4" fill="#414042"/>
  <path d="M93,58.3 C93.04,61.04 92.23,63.73 90.7,66 C89.15,68.29 87.01,70.13 84.5,71.3 C87.38,72.5 89.87,74.48 91.7,77 C93.49,79.47 94.44,82.45 94.4,85.5 C94.59,90.06 92.72,94.47 89.3,97.5 C85.9,100.5 81.4,102 75.9,102 C70.4,102 65.8,100.5 62.5,97.5 C59.08,94.47 57.21,90.06 57.4,85.5 C57.39,82.47 58.29,79.51 60,77 C61.79,74.45 64.25,72.45 67.1,71.2 C64.62,70.02 62.51,68.19 61,65.9 C59.51,63.61 58.74,60.93 58.8,58.2 C58.8,53.3 60.4,49.4 63.5,46.5 C66.6,43.6 70.8,42.2 75.9,42.2 C81,42.2 85.1,43.6 88.3,46.5 C91.46,49.59 93.17,53.88 93,58.3 Z M86.9,85.4 C87.03,82.42 85.9,79.52 83.8,77.4 C81.62,75.33 78.7,74.22 75.7,74.3 C70.01,73.91 65.09,78.21 64.7,83.89 C64.67,84.36 64.67,84.83 64.7,85.3 C64.56,88.19 65.61,91.01 67.6,93.1 C69.5,95 72.3,95.9 75.8,95.9 C79.3,95.9 82,95 83.9,93 C85.9,91.3 86.9,88.7 86.9,85.4 Z M75.8,48.4 C73.19,48.27 70.65,49.25 68.8,51.1 C66.93,53.06 65.95,55.7 66.1,58.4 C65.99,61.07 66.97,63.66 68.8,65.6 C70.69,67.45 73.26,68.43 75.9,68.3 C78.54,68.43 81.11,67.45 83,65.6 C84.85,63.67 85.83,61.07 85.7,58.4 C85.84,55.71 84.82,53.09 82.9,51.2 C80.99,49.37 78.44,48.36 75.8,48.4 Z" fill="#FAFAFA"/>
  <path d="M49.1,43 L34.8,48.4 C34.12,48.63 33.67,49.28 33.7,50 L33.7,53.2 C33.7,54.14 34.47,54.91 35.41,54.91 C35.61,54.91 35.81,54.87 36,54.8 L40.9,53 C41.79,52.67 42.77,53.13 43.09,54.01 C43.16,54.2 43.19,54.4 43.2,54.6 L43.2,99.7 C43.23,100.63 43.97,101.37 44.9,101.4 L49,101.4 C49.93,101.37 50.67,100.63 50.7,99.7 L50.7,44.1 C50.7,43.43 50.15,42.88 49.47,42.89 C49.41,42.89 49.35,42.89 49.3,42.9 L49.1,43 Z" fill="#FAFAFA"/>
  <path d="M84.6,34.7 L83.5,34.7 C83.12,34.69 82.81,34.98 82.8,35.36 C82.8,35.37 82.8,35.39 82.8,35.4 L82.8,38.4 C82.81,38.78 82.52,39.09 82.14,39.1 C82.13,39.1 82.11,39.1 82.1,39.1 L81.6,39.1 C81.22,39.11 80.91,38.82 80.9,38.44 C80.9,38.43 80.9,38.41 80.9,38.4 L80.9,28.3 C80.89,27.92 81.18,27.61 81.56,27.6 C81.57,27.6 81.59,27.6 81.6,27.6 L84.9,27.6 C86.01,27.53 87.1,27.85 88,28.5 C88.74,29.16 89.14,30.11 89.1,31.1 C89.12,31.81 88.91,32.51 88.5,33.1 C88.24,33.48 87.9,33.78 87.5,34 C87.2,34.24 87.08,34.64 87.2,35 L89.5,39.2 L89.5,39.3 L87.8,39.3 C87.52,39.27 87.27,39.13 87.1,38.9 L85.2,35.2 C85.1,34.8 84.9,34.7 84.6,34.7 Z M82.8,32.3 C82.79,32.68 83.08,32.99 83.46,33 C83.47,33 83.49,33 83.5,33 L84.8,33 C85.37,33.02 85.94,32.84 86.4,32.5 C86.81,32.16 87.04,31.64 87,31.1 C87.02,30.59 86.84,30.09 86.5,29.7 C86.04,29.36 85.47,29.18 84.9,29.2 L83.5,29.2 C83.12,29.19 82.81,29.48 82.8,29.86 C82.8,29.87 82.8,29.89 82.8,29.9 L82.8,32.3 Z" fill="#FAFAFA"/>
  <path d="M77.3,34 L73.4,34 C73.19,34.01 73.01,34.19 73,34.4 L73,37.1 C73.01,37.31 73.19,37.49 73.4,37.5 L78,37.5 C78.21,37.51 78.39,37.69 78.4,37.9 L78.4,38.7 C78.39,38.91 78.21,39.09 78,39.1 L71.4,39.1 C71.19,39.09 71.01,38.91 71,38.7 L71,28.1 C71.01,27.89 71.19,27.71 71.4,27.7 L78,27.7 C78.21,27.71 78.39,27.89 78.4,28.1 L78.4,28.9 C78.39,29.11 78.21,29.29 78,29.3 L73.4,29.3 C73.19,29.31 73.01,29.49 73,29.7 L73,32 C73.01,32.21 73.19,32.39 73.4,32.4 L77.3,32.4 C77.51,32.41 77.69,32.59 77.7,32.8 L77.7,33.6 C77.72,33.8 77.57,33.98 77.36,34 C77.34,34 77.32,34 77.3,34 Z" fill="#FAFAFA"/>
  <path d="M60.5,38.7 L60.5,28.1 C60.51,27.89 60.69,27.71 60.9,27.7 L63.8,27.7 C64.75,27.67 65.68,27.92 66.5,28.4 C67.29,28.82 67.92,29.49 68.3,30.3 C68.71,31.18 68.91,32.13 68.9,33.1 L68.9,33.7 C68.93,34.67 68.72,35.63 68.3,36.5 C67.89,37.29 67.27,37.95 66.5,38.4 C65.67,38.84 64.74,39.08 63.8,39.1 L60.9,39.1 C60.69,39.09 60.51,38.91 60.5,38.7 Z M62.5,29.7 L62.5,37.1 C62.51,37.31 62.69,37.49 62.9,37.5 L63.8,37.5 C64.71,37.55 65.59,37.18 66.2,36.5 C66.82,35.7 67.1,34.7 67,33.7 L67,33.1 C67.05,32.1 66.77,31.12 66.2,30.3 C65.62,29.64 64.78,29.27 63.9,29.3 L62.9,29.3 C62.69,29.31 62.51,29.49 62.5,29.7 Z" fill="#FAFAFA"/>
  <path d="M46.5,27.7 C46.71,27.71 46.89,27.89 46.9,28.1 L46.9,35.3 C46.95,36.4 46.51,37.46 45.7,38.2 C44.84,38.94 43.74,39.34 42.6,39.3 C41.48,39.37 40.37,39.01 39.5,38.3 C38.72,37.55 38.31,36.48 38.4,35.4 L38.4,28.2 C38.41,27.99 38.59,27.81 38.8,27.8 L40,27.8 C40.21,27.81 40.39,27.99 40.4,28.2 L40.4,35.4 C40.35,36.03 40.57,36.65 41,37.1 C41.46,37.52 42.08,37.73 42.7,37.7 C43.85,37.83 44.88,37.01 45.01,35.86 C45.03,35.67 45.03,35.49 45,35.3 L45,28.2 C45.01,27.99 45.19,27.81 45.4,27.8 C45.4,27.7 46.5,27.7 46.5,27.7 Z" fill="#FAFAFA"/>
  <path d="M57.5,39.1 L56.2,39.1 C56.1,39.1 55.9,39 55.9,38.9 L51.7,32.2 C51.5,31.9 50.9,32 50.9,32.4 L50.9,38.6 C50.89,38.81 50.71,38.99 50.5,39 L49.3,39 C49.09,38.99 48.91,38.81 48.9,38.6 L48.9,28.1 C48.91,27.89 49.09,27.71 49.3,27.7 L50.6,27.7 C50.7,27.7 50.9,27.8 50.9,27.9 L55.1,34.6 C55.3,34.9 55.9,34.8 55.9,34.4 L55.9,28.1 C55.91,27.89 56.09,27.71 56.3,27.7 L57.4,27.7 C57.61,27.71 57.79,27.89 57.8,28.1 L57.8,38.6 C57.88,38.77 57.81,38.98 57.63,39.07 C57.59,39.09 57.55,39.1 57.5,39.1 Z" fill="#FAFAFA"/>
  <path d="M23.4,35.6 L95,102.1 L97,100.2 L30.6,33.4" fill="#231F20" opacity="0.8"/>
  <path d="M103.9,96.8 L25.3,18.9 L18.2,26 L96.8,103.9" fill="#F44336"/>
  <path d="M45,10.9 C46.7,10.5 49.2,9.3 50.9,9.8 C51.99,10.1 52.65,11.2 52.4,12.3 C52.03,13.11 51.28,13.67 50.4,13.8 C46.5,14.77 42.72,16.15 39.1,17.9 C31.92,21.68 25.72,27.09 21,33.7 C19.1,36.4 17.6,39.2 15.2,41.5 C14.99,41.73 14.71,41.87 14.4,41.9 C14.23,41.93 14.05,41.89 13.9,41.8 C12.7,41.3 12.5,40.7 12.7,39.5 C12.88,38.49 13.22,37.51 13.7,36.6 C14.71,34.84 15.81,33.14 17,31.5 C18.89,28.59 21.11,25.91 23.6,23.5 C30.4,17.2 39.2,12.4 45,10.9 Z" fill="#FF8A80"/>
  <path d="M32.4,25.3 L30.4,27.3 L101.5,98.4 L103.3,96.2 Z" fill="#CC3333"/>
</svg>
